X: 1
T: Mike In The Wilderness
M: 4/4
L: 1/8
R: barndance
K: Amix
|: e2a2 abag | e2g2 gagf | e2a2 a2ef | gfed cABc :|
|: A3e A2AB | c2cA B2Bc | A3e A2ef | gfed cABc :|
|: A2Ac B2Bc | A2Ac AFEF | A2Ac B2Bf | gfed cABc :|
